X:01042
T: Tarry Awhile
O: Printle's Collection 1802
R: jig
B: RSCDS 1-4(b)
Z: 1997 by John Chambers <jc:trillian.mit.edu>
M: 6/8
L: 1/8
%--------------------
K: D
A \
| "D"d>ed A2F | "D"A2A A2f \
|1 "G"g>ag "D"fed | "E7"f3 "A7"e2 \
:|2 "D"afd "A7"e2f | "D"d3- "fine"d2 |]
|: g \
| "D"f2a agf | "G"g2b "A7"efg \
|1 "D"f>ed "E7"dcd | "A7"f>ec A2 \
:|2 "D"fed "E7"dcd | "(D)"f3 "A7"e2"d.C."z |]
